src/categories-icons-sprite/categories/svg-cat-homewear-men.svg

<svg width="35" height="42" viewBox="0 0 35 42" fill="none" xmlns="http://www.w3.org/2000/svg">
<path class="p-C5C9F7" d="M34.1817 9.14809V32.6347H28.4395V42H5.74219V32.6347H0V9.14809C0 4.10349 4.10349 0 9.14809 0H25.0333C30.0779 0 34.1817 4.10349 34.1817 9.14809Z" fill="#B9DFFC"/>
<path class="p-98A0F0" d="M34.1818 9.14809V32.6347H28.4397V42H17.0908V0H25.0334C30.078 0 34.1818 4.10349 34.1818 9.14809Z" fill="#A1D1FD"/>
<path class="p-97A1F0" d="M22.2908 0L17.0901 13.2051L11.3457 0H22.2908Z" fill="#5FBEFF"/>
<path class="p-6D76E7" d="M22.2915 0L17.0908 13.2051V0H22.2915Z" fill="#4D98CB"/>
<path class="p-E1E4FC" d="M27.2148 25.7187H22.7992L25.1451 31.0117L22.8149 31.7695L20.2222 25.7187H19.9249L18.256 31.7695L15.9265 31.0117L17.0913 26.507L17.3479 25.7187H6.96777V23.2684H12.8381L15.9845 14.8461L9.98691 0H12.6292L17.0913 11.0447L17.2537 11.4475L21.529 0H24.1459L17.0913 18.8861L15.4545 23.2684H27.2148V25.7187Z" fill="#76B7E2"/>
<path class="p-C5C9F7" d="M24.1455 0L17.0908 18.8861V11.0447L17.2533 11.4475L21.5285 0H24.1455Z" fill="#58ADE5"/>
<path class="p-C5C9F7" d="M27.2143 25.7187H22.7987L25.1446 31.0116L22.8144 31.7695L20.2218 25.7187H19.9244L18.2556 31.7695L17.0908 31.3904V23.2683H27.2143V25.7187Z" fill="#58ADE5"/>
<path class="p-6D76E7" d="M26.915 12.5742C26.915 12.1526 27.2568 11.8108 27.6785 11.8108C28.1001 11.8108 28.4419 12.1526 28.4419 12.5742V41.9999H26.915V12.5742Z" fill="#58ADE5"/>
<path class="p-97A1F0" d="M5.73926 12.5741C5.73926 12.1525 6.08098 11.8108 6.50252 11.8108C6.92406 11.8108 7.26579 12.1525 7.26579 12.5741V41.9999H5.73926V12.5741Z" fill="#5FBEFF"/>
</svg>

<svg width="35" height="42" fill="none" xmlns="http://www.w3.org/2000/svg"><path class="p-C5C9F7" d="M34.182 9.148v23.487h-5.743V42H5.742v-9.365H0V9.148C0 4.103 4.103 0 9.148 0h15.885c5.045 0 9.149 4.103 9.149 9.148z" fill="#B9DFFC"/><path class="p-98A0F0" d="M34.182 9.148v23.487H28.44V42H17.09V0h7.943c5.045 0 9.149 4.103 9.149 9.148z" fill="#A1D1FD"/><path class="p-97A1F0" d="M22.29 0l-5.2 13.205L11.346 0H22.29z" fill="#5FBEFF"/><path class="p-6D76E7" d="M22.291 0l-5.2 13.205V0h5.2z" fill="#4D98CB"/><path class="p-E1E4FC" d="M27.215 25.719h-4.416l2.346 5.293-2.33.758-2.593-6.051h-.297l-1.669 6.05-2.33-.757 1.165-4.505.257-.788H6.968v-2.45h5.87l3.147-8.423L9.986 0h2.642l4.462 11.045.163.402L21.529 0h2.617L17.09 18.886l-1.637 4.382h11.76v2.45z" fill="#76B7E2"/><path class="p-C5C9F7" d="M24.145 0l-7.054 18.886v-7.841l.162.402L21.53 0h2.616zM27.214 25.719H22.8l2.346 5.293-2.33.758-2.593-6.051h-.298l-1.668 6.05-1.165-.379v-8.122h10.123v2.45z" fill="#58ADE5"/><path class="p-6D76E7" d="M26.915 12.574a.763.763 0 011.527 0V42h-1.527V12.574z" fill="#58ADE5"/><path class="p-97A1F0" d="M5.74 12.574a.763.763 0 111.526 0V42H5.739V12.574z" fill="#5FBEFF"/></svg>
